X:188
T:Cauliflower, The TS.188
M:2/4
L:1/8
Q:1/4=110
S:Thomas Sands’ MS,1810,Lincolnshire
R:quick step
O:England;Lincolnshire
Z:vmp.Ruairidh Greig, 2011
K:G
DE/F/|GGGB|AAAc|BGGB|A/G/F/E/ DE/F/|GGGB|AAAc|B/d/B/G/ A/c/A/F/|G2:|
|:B/c/|Bgbd|d/c/B/c/ AB/c/|cgbc|c/B/A/B/ GB/c/|Bgbd|Bd e/d/c/B/|B2A2:|
K:Gm
|:BGBd|dc/B/ AF|AGAc|cB/A/ BG|BGBd|ec/B/ AG|F2G2|]

